Obsidian-SemiLight/actions/22s/flash.svg

<svg viewBox="0 0 22 22" xmlns="http://www.w3.org/2000/svg"><path d="m2 4v12h2v2h16v-12h-2v-2zm1 1h14v1h-13v9h-1zm2 2h14v10h-14zm5 2v6l4-3z" fill="#4d4d4d"/></svg>

<svg xmlns="http://www.w3.org/2000/svg" viewBox="0 0 22 22">
  <defs id="defs3051">
    <style type="text/css" id="current-color-scheme">
      .ColorScheme-Text {
        color:#4d4d4d;
      }
      </style>
  </defs>
 <path 
     style="fill:currentColor;fill-opacity:1;stroke:none" 
     d="M 2 4 L 2 16 L 4 16 L 4 18 L 20 18 L 20 6 L 18 6 L 18 4 L 2 4 z M 3 5 L 17 5 L 17 6 L 4 6 L 4 15 L 3 15 L 3 5 z M 5 7 L 19 7 L 19 17 L 5 17 L 5 7 z M 10 9 L 10 15 L 14 12 L 10 9 z "
     class="ColorScheme-Text"
     />
</svg>
